X: 292
T:Absolve, quesmus, Domine
N: Derived from Jos2601-Absolve_Quaesumus_Domine.krn
C: Josquin des Prez
%%abc-version 2.0
%%abcx-abcm2ps-target-version 5.9.1 (29 Sep 2008)
%%abc-creator hum2abc beta
%%abcx-conversion-date 2019/02/12 16:15:53
%%abc-edited-by Jesse Rodin
%%abc-edited-by Will Watson 04/22/2011
%%abcx-initial-encoding-date 2011/04/22/
%%humdrum-veritas 2517071978
%%humdrum-veritas-data 1554930368
%%linebreak <none>
%%barnumbers 0
L: 1/4
M: 2/1
Q: 1/2=120
V: 1 clef=treble
V: 2 clef=treble-8
V: 3 clef=treble-8
V: 4 clef=treble-8
V: 5 clef=bass
V: 6 clef=bass
K: F
[V:1] z8 | 
[V:2] z8 | 
[V:3] z8 | 
[V:4] C8 | 
[V:5] z8 | 
[V:6] z8 | 
[V:1] C8 | 
[V:2] z8 | 
[V:3] z8 | 
[V:4] C4C4 | 
[V:5] z8 | 
[V:6] z8 | 
[V:1] C4C4 | 
[V:2] z8 | 
[V:3] F8 | 
[V:4] F8 | 
[V:5] z8 | 
[V:6] z8 | 
[V:1] F8 | 
[V:2] z8 | 
[V:3] F4F4 | 
[V:4] D4D4 | 
[V:5] z8 | 
[V:6] z8 | 
[V:1] D4D4 | 
[V:2] z8 | 
[V:3] B8 | 
[V:4] G8 | 
[V:5] z8 | 
[V:6] z8 | 
[V:1] G8 | 
[V:2] z8 | 
[V:3] G4G4 | 
[V:4] E4E4 | 
[V:5] z8 | 
[V:6] z8 | 
[V:1] E4E4 | 
[V:2] z8 | 
[V:3] c8 | 
[V:4] z4C4 | 
[V:5] z8 | 
[V:6] z8 | 
[V:1] z8 | 
[V:2] c8- | 
[V:3] A4A4 | 
[V:4] C4C4 | 
[V:5] z8 | 
[V:6] F,,8 | 
[V:1] F8 | 
[V:2] c8 | 
[V:3] z8 | 
[V:4] F8 | 
[V:5] F,8- | 
[V:6] F,,4F,,4 | 
[V:1] F4F4 | 
[V:2] d8- | 
[V:3] B8 | 
[V:4] D4D4 | 
[V:5] F,8 | 
[V:6] B,,8 | 
[V:1] B8 | 
[V:2] d8 | 
[V:3] B4B4 | 
[V:4] G8 | 
[V:5] G,8- | 
[V:6] G,,4G,,4 | 
[V:1] G4G4 | 
[V:2] c8 | 
[V:3] _e8 | 
[V:4] C4C4- | 
[V:5] G,8 | 
[V:6] C,8 | 
[V:1] c8 | 
[V:2] c8 | 
[V:3] c4c4 | 
[V:4] C4z4 | 
[V:5] F,8 | 
[V:6] F,,4F,,4- | 
[V:1] A4A4 | 
[V:2] z8 | 
[V:3] f8 | 
[V:4] z4F4 | 
[V:5] F,8 | 
[V:6] F,,4z4 | 
[V:1] z2B2B2B2 | 
[V:2] z8 | 
[V:3] d4d4 | 
[V:4] G4G4 | 
[V:5] z8 | 
[V:6] z8 | 
[V:1] c3BA2G2 | 
[V:2] c8 | 
[V:3] z4c4- | 
[V:4] A3GF2E2 | 
[V:5] z8 | 
[V:6] z8 | 
[V:1] F4F4 | 
[V:2] d8 | 
[V:3] c2BAB4 | 
[V:4] D4D4 | 
[V:5] F,8 | 
[V:6] z8 | 
[V:1] E4c4- | 
[V:2] e8 | 
[V:3] c8- | 
[V:4] C8 | 
[V:5] G,8 | 
[V:6] z8 | 
[V:1] c2A2A4 | 
[V:2] e8 | 
[V:3] c8 | 
[V:4] z4E4 | 
[V:5] A,8 | 
[V:6] A,,8 | 
[V:1] z4A4 | 
[V:2] d8 | 
[V:3] z8 | 
[V:4] F8 | 
[V:5] A,8 | 
[V:6] D,4D,4 | 
[V:1] B8 | 
[V:2] d8 | 
[V:3] z8 | 
[V:4] D8 | 
[V:5] G,8 | 
[V:6] G,,4G,,4 | 
[V:1] G8 | 
[V:2] c8 | 
[V:3] z8 | 
[V:4] z8 | 
[V:5] G,8 | 
[V:6] _E,4E,4 | 
[V:1] z4A4 | 
[V:2] d8 | 
[V:3] z4f4 | 
[V:4] z8 | 
[V:5] F,8 | 
[V:6] D,8 | 
[V:1] B8 | 
[V:2] d8 | 
[V:3] B4d4 | 
[V:4] z8 | 
[V:5] G,8 | 
[V:6] G,,4B,,4 | 
[V:1] G8 | 
[V:2] c8- | 
[V:3] e2f4e2 | 
[V:4] z8 | 
[V:5] G,8 | 
[V:6] C,8 | 
[V:1] z4A4 | 
[V:2] c8 | 
[V:3] f4A4 | 
[V:4] z4F4 | 
[V:5] F,8- | 
[V:6] z4F,,4 | 
[V:1] B8 | 
[V:2] z8 | 
[V:3] d8 | 
[V:4] D8 | 
[V:5] F,8 | 
[V:6] B,,8 | 
[V:1] c8- | 
[V:2] z8 | 
[V:3] c8 | 
[V:4] A8 | 
[V:5] z8 | 
[V:6] A,,8 | 
[V:1] c8 | 
[V:2] c8 | 
[V:3] z4e4 | 
[V:4] z4A4 | 
[V:5] z8 | 
[V:6] z4A,,4 | 
[V:1] z8 | 
[V:2] d8 | 
[V:3] f8 | 
[V:4] A4B4 | 
[V:5] F,8 | 
[V:6] D,8 | 
[V:1] z4c4 | 
[V:2] e8 | 
[V:3] e4z4 | 
[V:4] c8- | 
[V:5] G,8 | 
[V:6] C,8 | 
[V:1] c4c4 | 
[V:2] e8 | 
[V:3] z4c4 | 
[V:4] c8 | 
[V:5] A,8 | 
[V:6] z4A,,4 | 
[V:1] d4d2d2 | 
[V:2] d8 | 
[V:3] f4f4 | 
[V:4] z4A4 | 
[V:5] A,8 | 
[V:6] D,4D,4 | 
[V:1] B2c2d2B2 | 
[V:2] z8 | 
[V:3] g4g4 | 
[V:4] d4d4 | 
[V:5] G,8 | 
[V:6] G,,4G,,4 | 
[V:1] c8 | 
[V:2] e8 | 
[V:3] g8 | 
[V:4] G4G4 | 
[V:5] z8 | 
[V:6] C,8 | 
[V:1] z4c4 | 
[V:2] e8 | 
[V:3] z4c4 | 
[V:4] c8 | 
[V:5] A,8 | 
[V:6] z4A,,4 | 
[V:1] d4d2d2- | 
[V:2] z8 | 
[V:3] f4f4 | 
[V:4] z4A4 | 
[V:5] A,8 | 
[V:6] D,4D,4 | 
[V:1] dcBAB4 | 
[V:2] g8 | 
[V:3] d4d2g2- | 
[V:4] d4d4 | 
[V:5] z8 | 
[V:6] G,,4G,,4 | 
[V:1] c8 | 
[V:2] e8 | 
[V:3] g2e4a2- | 
[V:4] G4A4 | 
[V:5] C8 | 
[V:6] C,4A,,4 | 
[V:1] z4A4 | 
[V:2] d8 | 
[V:3] agfef4 | 
[V:4] A4D4 | 
[V:5] A,8 | 
[V:6] D,4D,4 | 
[V:1] B2GABcdB | 
[V:2] z8 | 
[V:3] g8 | 
[V:4] D4G4 | 
[V:5] G,8 | 
[V:6] G,,8 | 
[V:1] c8 | 
[V:2] e8 | 
[V:3] z4c4 | 
[V:4] C8 | 
[V:5] z8 | 
[V:6] z4A,,4 | 
[V:1] z8 | 
[V:2] f4e4 | 
[V:3] F4c4 | 
[V:4] z8 | 
[V:5] A,8 | 
[V:6] D,3C,A,,2C,2 | 
[V:1] z4A4 | 
[V:2] d8- | 
[V:3] d2g4^f2 | 
[V:4] z4d4 | 
[V:5] B,4A,4 | 
[V:6] B,,2G,,2D,4 | 
[V:1] B2GABcd2- | 
[V:2] d8 | 
[V:3] g8 | 
[V:4] B4G3A | 
[V:5] G,8- | 
[V:6] G,,8 | 
[V:1] dcc4=B2 | 
[V:2] z8 | 
[V:3] z4g4 | 
[V:4] B2c2d4 | 
[V:5] G,8 | 
[V:6] z4G,,4 | 
[V:1] c4z2c2 | 
[V:2] c8 | 
[V:3] e2f4e2 | 
[V:4] c2A2G4 | 
[V:5] z8 | 
[V:6] A,,2F,,2C,4 | 
[V:1] A3Bc2A2- | 
[V:2] c8 | 
[V:3] f8 | 
[V:4] z4F3G | 
[V:5] F,8 | 
[V:6] F,,4z2F,2- | 
[V:1] AGFEF4 | 
[V:2] d8 | 
[V:3] z8 | 
[V:4] ABc3BB2 | 
[V:5] F,8 | 
[V:6] F,E,D,C,D,4 | 
[V:1] E4z4 | 
[V:2] e8 | 
[V:3] z4c4 | 
[V:4] c8 | 
[V:5] G,8 | 
[V:6] C,8 | 
[V:1] c4c4 | 
[V:2] e8 | 
[V:3] c8 | 
[V:4] z8 | 
[V:5] A,8 | 
[V:6] z4A,,4 | 
[V:1] A6A2 | 
[V:2] d8 | 
[V:3] f6f2 | 
[V:4] F4F4 | 
[V:5] A,8 | 
[V:6] D,8 | 
[V:1] B4B4 | 
[V:2] d8 | 
[V:3] g4g4 | 
[V:4] B6B2 | 
[V:5] G,8 | 
[V:6] G,,4G,,4 | 
[V:1] G4c4 | 
[V:2] c8 | 
[V:3] e8 | 
[V:4] c4e4 | 
[V:5] G,8 | 
[V:6] C,6C,2 | 
[V:1] A4B4 | 
[V:2] z8 | 
[V:3] d4f4 | 
[V:4] f4d4 | 
[V:5] F,8 | 
[V:6] D,4D,4 | 
[V:1] c8- | 
[V:2] e8 | 
[V:3] g4c2c2 | 
[V:4] G6G2 | 
[V:5] z8 | 
[V:6] C,8 | 
[V:1] c8 | 
[V:2] e8 | 
[V:3] z4e4 | 
[V:4] c4C4 | 
[V:5] A,8 | 
[V:6] A,,4A,,4 | 
[V:1] z8 | 
[V:2] d8 | 
[V:3] f4f4 | 
[V:4] F2D2F4 | 
[V:5] A,8 | 
[V:6] z8 | 
[V:1] z4E4 | 
[V:2] c8 | 
[V:3] e4z2e2 | 
[V:4] C4z4 | 
[V:5] G,8 | 
[V:6] z4C,4 | 
[V:1] F4F4 | 
[V:2] z8 | 
[V:3] d4d4 | 
[V:4] z8 | 
[V:5] F,8 | 
[V:6] D,2B,,2D,4 | 
[V:1] E4z4 | 
[V:2] e8 | 
[V:3] c8 | 
[V:4] z2E4E2 | 
[V:5] z8 | 
[V:6] A,,8 | 
[V:1] z2F4F2 | 
[V:2] d8 | 
[V:3] z8 | 
[V:4] F2D2F4 | 
[V:5] A,8 | 
[V:6] z8 | 
[V:1] G2E2G4 | 
[V:2] e8 | 
[V:3] z8 | 
[V:4] C8 | 
[V:5] G,8 | 
[V:6] z4E,2E,2 | 
[V:1] F4z4 | 
[V:2] d8 | 
[V:3] z2f4f2 | 
[V:4] z8 | 
[V:5] A,8 | 
[V:6] F,2D,2F,4 | 
[V:1] z4c4 | 
[V:2] c8 | 
[V:3] g2g2e4 | 
[V:4] z4G4 | 
[V:5] G,8 | 
[V:6] C,8 | 
[V:1] c4c4 | 
[V:2] c8 | 
[V:3] f8 | 
[V:4] A4A4 | 
[V:5] F,8 | 
[V:6] z4F,,4 | 
[V:1] d8 | 
[V:2] z8 | 
[V:3] f8 | 
[V:4] D8 | 
[V:5] F,8 | 
[V:6] B,,4B,,4 | 
[V:1] c8 | 
[V:2] e8 | 
[V:3] z8 | 
[V:4] A4E4 | 
[V:5] z8 | 
[V:6] A,,8 | 
[V:1] z4F4 | 
[V:2] d8 | 
[V:3] z8 | 
[V:4] F8 | 
[V:5] A,8 | 
[V:6] D,8 | 
[V:1] G4G4 | 
[V:2] e8 | 
[V:3] z4c4 | 
[V:4] E8- | 
[V:5] G,8 | 
[V:6] z4C,4 | 
[V:1] c8 | 
[V:2] e8 | 
[V:3] c4c4 | 
[V:4] E8 | 
[V:5] A,8 | 
[V:6] A,,4A,,4 | 
[V:1] A8 | 
[V:2] z8 | 
[V:3] f8 | 
[V:4] z4F4 | 
[V:5] A,8 | 
[V:6] D,8 | 
[V:1] z8 | 
[V:2] g8 | 
[V:3] d4e4 | 
[V:4] B4G4- | 
[V:5] z8 | 
[V:6] G,,4C,4 | 
[V:1] z4c4 | 
[V:2] e8 | 
[V:3] g4c2a2- | 
[V:4] G4A4- | 
[V:5] C8 | 
[V:6] C,4A,,4 | 
[V:1] d4A2d2- | 
[V:2] d8 | 
[V:3] ag^fe^f4 | 
[V:4] A4D4 | 
[V:5] A,8 | 
[V:6] D,8 | 
[V:1] dc=BA=B4 | 
[V:2] z8 | 
[V:3] g8 | 
[V:4] D4G4 | 
[V:5] G,8 | 
[V:6] G,,8 | 
[V:1] c8 | 
[V:2] e8 | 
[V:3] z4c4 | 
[V:4] C8 | 
[V:5] z8 | 
[V:6] z4A,,4 | 
[V:1] z8 | 
[V:2] f4e4 | 
[V:3] F4c4 | 
[V:4] z8 | 
[V:5] A,8 | 
[V:6] D,4C,4 | 
[V:1] z4A4 | 
[V:2] d8- | 
[V:3] d2g4^f2 | 
[V:4] z4d4- | 
[V:5] B,4A,4 | 
[V:6] B,,2G,,2D,4 | 
[V:1] B2G2B2c2 | 
[V:2] d8 | 
[V:3] g4z4 | 
[V:4] d2B4G2 | 
[V:5] G,8- | 
[V:6] G,,8 | 
[V:1] d4B4 | 
[V:2] z8 | 
[V:3] g4g4 | 
[V:4] B4B4 | 
[V:5] G,8 | 
[V:6] z4G,,4 | 
[V:1] c8 | 
[V:2] c8 | 
[V:3] e4f2f2 | 
[V:4] A4A4 | 
[V:5] z8 | 
[V:6] A,,4F,,4 | 
[V:1] z8 | 
[V:2] d8 | 
[V:3] f4B4 | 
[V:4] D4F4 | 
[V:5] F,8 | 
[V:6] B,,4D,4 | 
[V:1] z4B4 | 
[V:2] e4d4 | 
[V:3] c4z4 | 
[V:4] E2C2D3E | 
[V:5] G,8 | 
[V:6] C,4B,,4 | 
[V:1] A2F2G2E2 | 
[V:2] c8 | 
[V:3] z4c4 | 
[V:4] F4E4 | 
[V:5] A,4G,4 | 
[V:6] F,,4z4 | 
[V:1] F2G2A4 | 
[V:2] d8 | 
[V:3] B4A4 | 
[V:4] D8 | 
[V:5] F,8 | 
[V:6] z4D,4 | 
[V:1] B4G2A2 | 
[V:2] d8- | 
[V:3] G4z4 | 
[V:4] z4D4 | 
[V:5] G,8 | 
[V:6] G,,8 | 
[V:1] B2c2d2B2 | 
[V:2] d8 | 
[V:3] z4g4 | 
[V:4] G8 | 
[V:5] G,8- | 
[V:6] G,,8 | 
[V:1] c8- | 
[V:2] c8- | 
[V:3] e2f2g2e2 | 
[V:4] C8- | 
[V:5] G,8 | 
[V:6] C,8 | 
[V:1] c4A4 | 
[V:2] c8- | 
[V:3] f8- | 
[V:4] C8- | 
[V:5] F,8- | 
[V:6] F,,8- | 
[V:1] A8 ||  
[V:2] c8 ||  
[V:3] f8 ||  
[V:4] C8 ||  
[V:5] F,8 ||  
[V:6] F,,8 ||  
[V:1] G8 | 
[V:2] z8 | 
[V:3] d8 | 
[V:4] G8 | 
[V:5] B,8 | 
[V:6] z8 | 
[V:1] G4G4 | 
[V:2] z8 | 
[V:3] _e4_e4 | 
[V:4] _E4_E4 | 
[V:5] B,4B,4 | 
[V:6] z8 | 
[V:1] G4G4 | 
[V:2] z8 | 
[V:3] _e4_e4 | 
[V:4] _E4_E4 | 
[V:5] B,4B,4 | 
[V:6] z8 | 
[V:1] G8 | 
[V:2] z8 | 
[V:3] d8 | 
[V:4] G8 | 
[V:5] B,8 | 
[V:6] z8 | 
[V:1] A8 | 
[V:2] z8 | 
[V:3] d8 | 
[V:4] D8 | 
[V:5] A,8 | 
[V:6] z8 | 
[V:1] A8 | 
[V:2] f8 | 
[V:3] z4d4 | 
[V:4] D4z4 | 
[V:5] A,8 | 
[V:6] D,8 | 
[V:1] z4d4 | 
[V:2] f4f4 | 
[V:3] d4d4 | 
[V:4] z4F4 | 
[V:5] z8 | 
[V:6] B,,4B,,4 | 
[V:1] d4d4 | 
[V:2] f4f4 | 
[V:3] d4d4 | 
[V:4] F4D4 | 
[V:5] B,8 | 
[V:6] B,,4B,,4 | 
[V:1] d4A4 | 
[V:2] f8 | 
[V:3] d8 | 
[V:4] F4D4 | 
[V:5] A,8 | 
[V:6] D,8 | 
[V:1] c8 | 
[V:2] e8 | 
[V:3] c8 | 
[V:4] E6C2 | 
[V:5] A,8- | 
[V:6] A,,8 | 
[V:1] c4z4 | 
[V:2] e8 | 
[V:3] c6A2 | 
[V:4] C4c4- | 
[V:5] A,8- | 
[V:6] A,,8 | 
[V:1] c6A2 | 
[V:2] z8 | 
[V:3] A4c4 | 
[V:4] c2A2A4 | 
[V:5] A,8- | 
[V:6] z8 | 
[V:1] A4z4 | 
[V:2] f8 | 
[V:3] d8 | 
[V:4] z4A4- | 
[V:5] A,8- | 
[V:6] D,8 | 
[V:1] c8- | 
[V:2] e8 | 
[V:3] c8 | 
[V:4] A4E4 | 
[V:5] A,8- | 
[V:6] A,,8 | 
[V:1] c4A4 | 
[V:2] e8- | 
[V:3] c8- | 
[V:4] E8- | 
[V:5] A,8- | 
[V:6] A,,8- | 
[V:1] A8 |]  
[V:2] e8 |]  
[V:3] c8 |]  
[V:4] E8 |]  
[V:5] A,8 |]  
[V:6] A,,8 |]  



